X:1
T:Hold Thou My Hand
T:Hold Thou My Hand
T:Hubert Platt Main, 1880
T:Frances Jane (Fanny) Crosby, 1879
T:Public Domain Courtesy of the Cyber Hymnal™
C:Hubert Platt Main, 1880
Z:Public Domain
Z:Courtesy of the Cyber Hymnal™
%%score ( 1 2 ) 3
L:1/8
Q:1/4=95
M:2/4
K:Ab
V:1 treble 
V:2 treble 
V:3 bass 
V:1
 [CE]2 [=B,=D][CE] | [DF]3 [CE] | [CE][Ec] [EB][EA] | [EA]2 [EG]2 | [EB]2 [EG][EA] | [EB]2 [Ec]2 | %6
w: 1.~Hold Thou my|hand; so|weak I am, and|help- less,|I dare not|take one|
w: 2.~Hold Thou my|hand, and|clos- er, clos- er|draw me|To Thy dear|self— my|
w: 3.~Hold Thou my|hand; the|way is dark be-|fore me|With- out the|sun- light|
w: 4.~Hold Thou my|hand, that|when I reach the|mar- gin|Of that lone|riv- er|
 EE [=DG]>[DF] | (E2- [DE]2) | [CE]2 [=B,=D][CE] | [DF]3 [CE] | [EA][Ec] [Ee][Fd] | [Ec]2 [EB]2 | %12
w: step with- out Thy|aid; *|Hold Thou my|hand; for|then, O lov- ing|Sav- ior,|
w: hope, my joy, my|all; *|Hold Thou my|hand, lest|hap- ly I should|wan- der,|
w: of Thy face di-|vine; *|But when by|faith I|catch its rad- iant|glor- y,|
w: Thou didst cross for|me, *|A heaven- ly|light may|flash a- long its|wa- ters,|
 [Ee]2 [Ed][Ec] | [DF]2 [FB]2 | [EA][EG] [Gc]>[GB] | A4 |] %16
w: No dread of|ill shall|make my soul a-|fraid.|
w: And, miss- ing|Thee, my|trem- bling feet should|fall.|
w: What heights of|joy, what|rap- turous songs are|mine!|
w: And ev- ery|wave like|crys- tal bright shall|be.|
V:2
 x4 | x4 | x4 | x4 | x4 | x4 | x4 | x4 | x4 | x4 | x4 | x4 | x4 | x4 | x4 | A4 |] %16
V:3
 [A,,A,]2 [A,,A,][A,,A,] | [A,,A,]3 [A,,A,] | [A,,A,][A,,A,] [C,A,][C,A,] | [E,C]2 [E,B,]2 | %4
 [E,G,]2 [E,B,][E,C] | [E,G,]2 [A,,A,]2 | [B,,G,][B,,G,] [B,,B,]>[B,,A,] | [E,G,]4 | %8
 [A,,A,]2 [A,,A,][A,,A,] | [A,,A,]3 [A,,A,] | [C,A,][A,,A,] [C,A,][D,A,] | [E,A,]2 [E,G,]2 | %12
 [C,A,]2 [B,,G,][A,,A,] | [D,A,]2 [B,,D]2 | [E,C][E,B,] [E,E]>[E,D] | [A,,C]4 |] %16

